X: 26616
T: Mickey Callaghan's Fancy
R: hornpipe
M: 4/4
K: Fmajor
|:FDCD FGAG|FDCD FGAc|cAdA cAFA|G3F G2AG|
FDCD FGAG|FDCD FGAc|cAdA cAFA|1 G2F2 F3G:|2 G2F2 F2Ac||
|:d3f dcAB|c2cd cAFA|B2dB A2GF|DGGF G3A|
FDCD FGAG|FDCD FGAB|cAdA cAFA|1 G2F2 F2Ac:|2 G2F2 F3G||

